public/images/ico_home.svg

<svg height="17" viewBox="0 0 20 17" width="20" xmlns="http://www.w3.org/2000/svg"><g fill="none" fill-rule="evenodd" transform="translate(-2 -3)"><path d="m10 20v-6h4v6h5v-8h3l-10-9-10 9h3v8z" fill="#fff"/><path d="m0 0h24v24h-24z"/></g></svg>

<?xml version="1.0" encoding="UTF-8" standalone="no"?>
<svg width="20px" height="17px" viewBox="0 0 20 17" version="1.1" xmlns="http://www.w3.org/2000/svg" xmlns:xlink="http://www.w3.org/1999/xlink" xmlns:sketch="http://www.bohemiancoding.com/sketch/ns">
    <!-- Generator: Sketch 3.2.2 (9983) - http://www.bohemiancoding.com/sketch -->
    <title>ic_home_24px</title>
    <desc>Created with Sketch.</desc>
    <defs></defs>
    <g id="Page-1" stroke="none" stroke-width="1" fill="none" fill-rule="evenodd" sketch:type="MSPage">
        <g id="1---404-Error-Page" sketch:type="MSArtboardGroup" transform="translate(-1048.000000, -211.000000)">
            <g id="fab-+-ic_share_24px-+-ic_home_24px" sketch:type="MSLayerGroup" transform="translate(1030.000000, 192.000000)">
                <g id="ic_home_24px" transform="translate(16.000000, 16.000000)" sketch:type="MSShapeGroup">
                    <path d="M10,20 L10,14 L14,14 L14,20 L19,20 L19,12 L22,12 L12,3 L2,12 L5,12 L5,20 L10,20 Z" id="Shape" fill="#FFFFFF"></path>
                    <path d="M0,0 L24,0 L24,24 L0,24 L0,0 Z" id="Shape"></path>
                </g>
            </g>
        </g>
    </g>
</svg>
